packages/core/src/svgs/tokens/branded/REVV.svg

<svg width="24" height="24" viewBox="0 0 24 24" fill="none" xmlns="http://www.w3.org/2000/svg">
<path fill-rule="evenodd" clip-rule="evenodd" d="M12.0002 20.8237C16.8732 20.8237 20.8237 16.8731 20.8237 12.0002C20.8237 7.12732 16.8732 3.17676 12.0002 3.17676C7.12732 3.17676 3.17676 7.12732 3.17676 12.0002C3.17676 16.8731 7.12732 20.8237 12.0002 20.8237ZM12.0002 19.6473C16.2237 19.6473 19.6472 16.2237 19.6472 12.0002C19.6472 7.77672 16.2237 4.35322 12.0002 4.35322C7.77672 4.35322 4.35322 7.77672 4.35322 12.0002C4.35322 16.2237 7.77672 19.6473 12.0002 19.6473Z" fill="#010101"/>
<path d="M8.47046 10.8236H10.8233V15.5048C10.8233 16.1683 10.297 16.7059 9.64693 16.7059C8.99692 16.7059 8.47046 16.1683 8.47046 15.5048V10.8236Z" fill="black"/>
<path fill-rule="evenodd" clip-rule="evenodd" d="M9.64693 7.29431C9.33495 7.29431 9.03567 7.41827 8.81503 7.63889C8.59441 7.85952 8.47046 8.15876 8.47046 8.47077V9.059H13.0857C13.6228 9.059 14.0587 9.45433 14.0587 9.94131C14.0587 10.4284 13.6233 10.8237 13.0857 10.8237H12.4569C12.2333 10.8237 12.0017 10.9019 11.8074 11.0531C11.3717 11.3914 11.2822 12.0331 11.6075 12.486L14.3428 16.2948C14.6686 16.7477 15.2857 16.8406 15.7216 16.5025C16.1574 16.1643 16.2475 15.5225 15.9216 15.069L14.061 12.4366C14.6483 12.227 15.1428 11.8167 15.4574 11.2783C15.772 10.7397 15.8865 10.1075 15.7805 9.4929C15.6747 8.87834 15.3553 8.32083 14.8786 7.91862C14.4021 7.51643 13.7987 7.29534 13.1752 7.29431H9.64693Z" fill="#FA0102"/>
<path fill-rule="evenodd" clip-rule="evenodd" d="M13.6754 2.73728C14.1578 2.82391 14.6329 2.94841 15.096 3.10962L14.7754 2.39022C14.2587 2.24131 13.731 2.13449 13.1971 2.07081L13.6754 2.73728ZM12.7695 2.02905C12.2364 1.98863 11.701 1.9904 11.1683 2.03433L11.8171 2.59021C12.2791 2.58119 12.7411 2.60597 13.1994 2.66433L12.7695 2.02905ZM11.3153 2.61316C10.8366 2.64728 10.3683 2.71787 9.9119 2.82081L9.1589 2.40903C9.67198 2.25745 10.1964 2.14748 10.7272 2.08022L11.3153 2.61316ZM8.73537 2.54551L9.42245 2.9455C8.95361 3.07904 8.50008 3.24786 8.06361 3.44844L7.24598 3.2008C7.72009 2.94375 8.21832 2.72433 8.73537 2.54551ZM6.85892 3.42197C6.35903 3.72202 5.88627 4.06508 5.44599 4.44725L6.36834 4.45903C6.7615 4.16468 7.17708 3.90152 7.61126 3.67197C7.37774 3.59491 7.07363 3.49374 6.85892 3.42197ZM5.94422 4.79549L5.1007 4.76196C4.70305 5.14078 4.33599 5.55254 4.00542 5.99254L4.81893 5.91608C5.162 5.51171 5.53842 5.13686 5.94422 4.79549ZM4.51953 6.28783L3.756 6.33842C3.41094 6.83974 3.11244 7.37156 2.86425 7.92723L3.71835 7.52488C3.95364 7.09076 4.22129 6.67783 4.51953 6.28783ZM3.46954 8.01841L2.6813 8.36369C2.48249 8.87546 2.32366 9.40669 2.20955 9.95488L2.97542 9.31953C3.10837 8.87134 3.27424 8.43665 3.46954 8.01841ZM2.82778 9.88255C2.52954 10.116 2.19954 10.3749 2.18072 10.3883L2.16719 10.169C2.04863 10.8111 1.99288 11.4632 2.00073 12.1161L2.6019 11.4866C2.6313 10.9378 2.70778 10.4019 2.82778 9.88255ZM2.58837 11.9942L2.01543 12.5619C2.04542 13.1057 2.11978 13.646 2.23778 14.1778L2.70013 13.4543C2.6256 12.9731 2.58824 12.4869 2.58837 12.0001V11.9942ZM2.78954 13.9448C2.61542 14.2019 2.42072 14.4895 2.34249 14.6037C2.49189 15.1601 2.68837 15.6977 2.92719 16.2106L3.20601 15.3608C3.03005 14.9004 2.89079 14.427 2.78954 13.9448ZM3.40541 15.8418L3.12718 16.6172C3.37247 17.0866 3.65306 17.5349 3.96718 17.9565L4.08777 17.0989C3.82869 16.6979 3.60057 16.2776 3.40541 15.8418ZM4.37423 17.5172L4.24071 18.3083C4.57669 18.7211 4.9449 19.1067 5.34187 19.4612L5.33011 18.6407C4.98274 18.2917 4.66315 17.916 4.37423 17.5172ZM5.67833 18.9725L5.66775 19.7401C6.0773 20.0756 6.51277 20.3781 6.9701 20.6448L6.78892 19.8389C6.39768 19.5782 6.02645 19.2885 5.67833 18.9725ZM7.20068 20.0977L7.34892 20.8548C7.82244 21.1041 8.31831 21.3165 8.83302 21.4883L8.48538 20.7336C8.04156 20.555 7.61207 20.342 7.20068 20.0977ZM8.94184 20.9036L9.24773 21.6165C9.73772 21.7565 10.2436 21.86 10.7618 21.9242L10.323 21.2629C9.84945 21.1777 9.38773 21.0565 8.94184 20.9036ZM10.7865 21.3342L11.1818 21.9671C11.7246 22.011 12.2702 22.011 12.813 21.9671L12.2312 21.4088C11.7485 21.4208 11.2655 21.3958 10.7865 21.3342ZM12.7065 21.3859L13.2377 21.9242C13.7948 21.8553 14.3376 21.7406 14.8618 21.5848L14.0895 21.1789C13.64 21.2812 13.1777 21.3506 12.7065 21.3859ZM14.5877 21.0519L15.2912 21.4459C15.7961 21.2699 16.2858 21.0536 16.7559 20.7989L15.92 20.5595C15.4924 20.7554 15.0471 20.9206 14.5877 21.0519ZM16.3789 20.3331L17.1459 20.576C17.6316 20.2841 18.0917 19.9515 18.5211 19.5819L17.5859 19.576C17.2047 19.8572 16.8012 20.1112 16.3789 20.3331ZM18.0206 19.2347L18.8735 19.263C19.285 18.8736 19.6628 18.4502 20.0029 17.9971L19.1089 18.1677C18.7753 18.552 18.4115 18.9089 18.0206 19.2347ZM19.4488 17.7536L20.2729 17.6195C20.594 17.1477 20.8741 16.6492 21.11 16.1295L20.303 16.436C20.0554 16.8981 19.7697 17.339 19.4488 17.7536ZM20.5282 15.9866L21.2841 15.7231C21.4994 15.186 21.67 14.626 21.79 14.0472L21.0576 14.5666C20.9199 15.0534 20.7429 15.5283 20.5282 15.9866ZM21.1859 14.0584L21.8729 13.5995C21.9622 13.0421 22.0045 12.4782 21.9994 11.9136L21.3959 12.5495C21.3664 13.0648 21.2953 13.5689 21.1859 14.0584ZM21.4117 12.0431L21.9552 11.5013L21.9964 11.7249C21.9793 11.0775 21.8992 10.4332 21.7576 9.80129L21.2871 10.4619C21.3694 10.9625 21.4117 11.4766 21.4117 12.0001V12.0431ZM21.1994 10.002L21.657 9.39543C21.5101 8.84938 21.317 8.31686 21.0794 7.8037L20.7948 8.64076C20.9623 9.07957 21.0982 9.53433 21.1994 10.002ZM20.5982 8.16664L20.8823 7.40312L20.8853 7.40783C20.6265 6.90724 20.3264 6.43137 19.9893 5.98489L19.8905 6.86841C20.1594 7.28017 20.3964 7.7137 20.5982 8.16664ZM19.5976 6.4443L19.71 5.63783L19.7312 5.65726C19.4001 5.25429 19.0382 4.87767 18.6488 4.53079L18.6812 5.37196C19.0129 5.70612 19.3193 6.06457 19.5976 6.4443ZM18.3271 5.03195L18.3176 4.24844C17.9132 3.9184 17.4838 3.62045 17.0329 3.35727L17.1671 4.13256C17.5771 4.40255 17.9653 4.70314 18.3271 5.03195ZM16.7783 3.88962L16.6723 3.15668C16.1976 2.90536 15.7032 2.6929 15.1941 2.52139L15.56 3.28492C15.9824 3.45786 16.39 3.66021 16.7783 3.88962Z" fill="#010101"/>
</svg>

<svg xmlns="http://www.w3.org/2000/svg" width="24" height="24" fill="none" viewBox="0 0 24 24">
    <path fill="#010101" fill-rule="evenodd" d="M12 20.824a8.824 8.824 0 1 0 0-17.648 8.824 8.824 0 0 0 0 17.648m0-1.177a7.647 7.647 0 1 0 0-15.293 7.647 7.647 0 0 0 0 15.293" clip-rule="evenodd"/>
    <path fill="#000" d="M8.47 10.824h2.353v4.68c0 .664-.526 1.202-1.176 1.202s-1.177-.538-1.177-1.201z"/>
    <path fill="#FA0102" fill-rule="evenodd" d="M9.647 7.294A1.177 1.177 0 0 0 8.47 8.471v.588h4.616c.537 0 .973.395.973.882s-.436.883-.973.883h-.63a1.051 1.051 0 0 0-.85 1.662l2.737 3.809a.96.96 0 0 0 1.379.207 1.05 1.05 0 0 0 .2-1.433l-1.861-2.632a2.649 2.649 0 0 0-.886-5.143z" clip-rule="evenodd"/>
    <path fill="#010101" fill-rule="evenodd" d="M13.675 2.737q.726.13 1.421.373l-.32-.72a10 10 0 0 0-1.579-.32zm-.905-.708a10 10 0 0 0-1.602.005l.65.556q.693-.013 1.381.074zm-1.455.584a9.4 9.4 0 0 0-1.403.208l-.753-.412a10 10 0 0 1 1.568-.329zm-2.58-.067.687.4a9.5 9.5 0 0 0-1.358.502l-.818-.247a10 10 0 0 1 1.49-.655m-1.876.876q-.751.451-1.413 1.025l.922.012a9.4 9.4 0 0 1 1.243-.787zm-.915 1.373-.843-.033q-.598.57-1.096 1.23l.814-.076q.516-.608 1.125-1.12M4.52 6.288l-.764.05a10 10 0 0 0-.892 1.59l.854-.403a9.4 9.4 0 0 1 .802-1.237m-1.05 1.73-.789.346a10 10 0 0 0-.471 1.59l.765-.634q.201-.674.495-1.302m-.642 1.865c-.298.233-.628.492-.647.505l-.014-.219a10 10 0 0 0-.166 1.947l.6-.63a9.3 9.3 0 0 1 .227-1.603m-.24 2.111-.573.568q.045.817.223 1.616l.462-.724A9.5 9.5 0 0 1 2.588 12zm.202 1.95-.448.66q.226.836.585 1.607l.279-.85a9.4 9.4 0 0 1-.416-1.416m.615 1.898-.278.775q.368.706.84 1.34l.12-.858a9.4 9.4 0 0 1-.682-1.257m.97 1.675-.134.791q.505.62 1.1 1.153l-.01-.82a9.5 9.5 0 0 1-.957-1.124m1.303 1.456-.01.767q.616.504 1.302.905l-.181-.806a9.4 9.4 0 0 1-1.11-.866m1.523 1.125.148.757q.711.376 1.484.633l-.348-.754a9.4 9.4 0 0 1-1.284-.636m1.74.806.307.712q.736.211 1.514.308l-.439-.661a9.4 9.4 0 0 1-1.381-.36m1.845.43.396.633q.815.066 1.631 0l-.582-.558a9.5 9.5 0 0 1-1.444-.075m1.92.052.532.538q.837-.104 1.624-.34l-.773-.405q-.674.154-1.383.207m1.882-.334.703.394a10 10 0 0 0 1.465-.647l-.836-.24a9.4 9.4 0 0 1-1.332.493m1.79-.719.768.243a10 10 0 0 0 1.375-.994l-.935-.006a9.4 9.4 0 0 1-1.207.757m1.643-1.098.852.028q.619-.586 1.13-1.266l-.894.17a9.5 9.5 0 0 1-1.088 1.068m1.428-1.481.824-.135a10 10 0 0 0 .837-1.49l-.807.307a9.4 9.4 0 0 1-.854 1.318m1.08-1.767.755-.264a10 10 0 0 0 .506-1.676l-.732.52a9.3 9.3 0 0 1-.53 1.42m.657-1.929.687-.458q.134-.838.126-1.686l-.603.636a9.4 9.4 0 0 1-.21 1.508m.226-2.015.543-.542.041.224a10 10 0 0 0-.238-1.924l-.47.66q.123.754.124 1.54zm-.213-2.041.458-.607a10 10 0 0 0-.578-1.591l-.284.837q.252.659.404 1.361m-.6-1.835.283-.764.003.005a10 10 0 0 0-.896-1.423l-.099.883q.405.619.708 1.299m-1.001-1.723.112-.806.021.02A10 10 0 0 0 18.65 4.53l.032.841q.498.502.917 1.072m-1.27-1.412-.01-.784q-.608-.496-1.285-.89l.134.775q.616.405 1.16.899m-1.55-1.142-.106-.733a10 10 0 0 0-1.478-.636l.366.764q.635.26 1.218.605" clip-rule="evenodd"/>
</svg>
